X: 25853
T: Master's Return, The
R: reel
M: 4/4
K: Dmajor
|d3B ABde|f3d edBA|FAdB ADFD|EDEF DEFA:|
d2fd adfd|(3efg fd edBA|dB~B2 ABdf|edef dBAB
d2fd adfd|(3efg fd edBA|defg a2bf|afec dgfe||

